X:1
T:I Bring Thee All
T:Evangeline Cory Booth, 1927
T:I Bring Thee All
C:Evangeline Cory Booth, 1927
%%score ( 1 2 ) ( 3 4 )
L:1/8
M:4/4
K:G
V:1 treble 
V:2 treble 
V:3 bass 
V:4 bass 
V:1
 [B,D]4 [^A,E]2 [B,D]2 | [Dc]6 [DB]2 | [EB]2 [EA]2 [CE]2 [CF]2 | [CA]4 [B,G]4 | [CE]4 [CF]2 [CG]2 | %5
w: 1.~Fa- ther of|love, of|jus- tice and of|mer- cy,|Thou art the|
w: 2.~O Thou, of|Whom the|heav’ns are but a|sym- bol,|Be Thou the|
w: 3.~O Man of|Sor- rows,|pray- ing in the|gar- den,|Thy sweat as|
 D6 [DB]2 | [^CB]2 [CA]2 [CE]2 [CA]2 | [DA]8 | [A,D]4 [A,E]2 D2 | [Dc]6 [DB]2 | %10
w: dawn, the|at e- ven- tide;|Show|Thou Thy face,|light my|
w: sun that|my heart to Thee;|Be|Thou the light|stars at|
w: blood falls|up- on the ground.|In|that dark a-|ny my|
 [EB]2 [EA]2 [CG]2 [CF]2 | [CA]4 [B,G]4 | [CG]4 [^A,F]2 [A,E]2 | [B,D]6 [DB]2 | [^CB]4 [=CA]4 | %15
w: way to Cal- v’ry,|There all|my sins in|Thee to|hide. I|
w: night do kin- dle,|Thy love|is more than|all to|me. I|
w: sins are par- doned;|My sol-|ace in Thy|grief is|found. I|
 [B,G]8 | [DB]4 [DA]2 [DB]2 | [=Fd]6 [Ec]2 | ([DB]4 [CA]4) | [B,G]4 [B,D]2 [CG]2 | [DB]4 [CA]4 | %21
w: bring|Thee all my|sins, None|can *|for- give but|Thee. *|
w: bring|Thee all my|heart, None|do *|I love like|Thee. *|
w: bring|Thee all my|tears, None|can *|con- sole like|Thee. *|
 [B,G]8 ||"^Refrain" [B,D]4 [^A,E]2 [B,D]2 | [Dc]8 | [CD]4 [CE]2 [CD]2 | [B,DB]8 | %26
w: |||||
w: |||||
w: |||||
 [DB]4 [Ec]2 [=FB]2 | [EB]2 [EA]2 [DG]2 [CE]2 | [B,D]4 [CA]4 | [B,G]8 |] %30
w: ||||
w: ||||
w: ||||
V:2
 x8 | x8 | x8 | x8 | x8 | D6 x2 | x8 | x8 | x6 D2 | x8 | x8 | x8 | x8 | x8 | x8 | x8 | x8 | x8 | %18
w: |||||star|||And||||||||||
w: |||||draws|||the||||||||||
w: |||||down|||go-||||||||||
 x8 | x8 | x8 | x8 || x8 | x8 | x8 | x8 | x8 | x8 | x8 | x8 |] %30
w: ||||||||||||
w: ||||||||||||
w: ||||||||||||
V:3
 [G,,D,]4 [G,,^C,]2 [G,,D,]2 | [A,,F,]6 [B,,G,]2 | [C,^G,]2 [C,A,]2 [A,,A,]2 [A,,A,]2 | %3
w: ~ ~ ~|~ ~|~ ~ ~ ~|
 [D,F,]4 [G,,D,G,]4 | [C,G,]4 [C,^D,]2 [C,E,]2 | [B,,G,]6 [E,G,]2 | %6
w: ~ ~|~ ~ ~|~ ~|
 [A,,E,G,]2 [E,G,]2 [G,,G,]2 [E,G,]2 | [D,F,]8 | [C,F,]4 [C,F,]2 [B,,G,]2 | [A,,F,]6 [B,,G,]2 | %10
w: ~ ~ ~ ~|~|~ ~ ~|~ ~|
 [C,^G,]2 [C,A,]2 [A,,E,A,]2 [D,A,]2 | [^D,F,]4 [E,G,]4 | [C,E,]4 [^C,F,]2 [C,G,]2 | %13
w: ~ ~ ~ ~|~ ~|~ ~ ~|
 [D,G,]6 [E,G,]2 | [A,,E,G,]4 [D,F,]4 | [G,,D,G,]8 | G,4 [F,A,]2 [=F,G,]2 | [B,,^G,]6 [C,A,]2 | %18
w: ~ ~|~ ~|~|~ ~ ~|~ ~|
 (D,4 ^D,4) | [E,G,]4 [F,G,]2 [E,G,]2 | [D,G,]4 [D,F,]4 | [G,,D,G,]8 || %22
w: ~ *|~ ~ ~|~ I|bring|
 [G,,D,]4 [G,,^C,]2 [G,,D,]2 | [A,,F,]8 | [D,F,]4 [A,,G,]2 [D,F,]2 | ([G,,G,]4 [=F,A,]4) | %26
w: Thee all, I|bring|Thee all; O,|give *|
 [E,^G,]4 [E,G,]2 [D,G,]2 | [C,^G,]2 [C,A,]2 [B,,B,]2 [C,=G,]2 | [D,G,]4 [D,F,]4 | [G,,D,G,]8 |] %30
w: Thy- self to|me, I bring Thee|all. *||
V:4
 x8 | x8 | x8 | x8 | x8 | x8 | x8 | x8 | x8 | x8 | x8 | x8 | x8 | x8 | x8 | x8 | G,4 x4 | x8 | %18
w: ||||||||||||||||~||
 F,8 | x8 | x8 | x8 || x8 | x8 | x8 | x8 | x8 | x8 | x8 | x8 |] %30
w: ~||||||||||||

